X: 11273
Q: "Moderate."
U: p=!crescendo(!
U: P=!crescendo)!
M: C
L: 1/8
K: F
p=Bc P"^^"f4 e>f | d2 "^^"G4 (g>f) |\
(e>dc>B) (A>Gc>E) | G2 F4 :|\
e3e (dcBc) | p(Ad) Pf4 (ed) |\
c3c =B2G2 | g2 g>(f e>dc>B) |
(ABcd e{g}fed) | (c2 d/c/B/c/ e3d) |\
c2 (ge) (c_BAB) | =Bc "^^"f4 ef |\
d2 "^^"G4 g>f | e>dc>B A>Gc>E | F6 |]


